X:176
T:Gustav's Waltz. Le4.176
Q:1/4=100
L:1/8
B:L.Leadley MS#4 c1850
Z:vmp.Mike Hicken 2016 www.village-music-project.org.uk
N:* There is no corresponding end repeat sign. The double bar line at *** is not clear and may have included repeats signs that have been erased.
N: There is no repeat sign shown at the end.
N: ** This is shown as a crotchet in the original. It has been changed to a quaver to give the correct repeats.
M:2/4
K:C
G|(GB/d/) cG|G(B/d/) cG|GcGe|(ca) g2|f(a/g/)g2|eg/^f/ g2|df/e/ f2|ecc :|
"*"|: "**"e|c'baf|c'baf|c'bag|fddf|bagf|bagf|bagf|ecc "***"||E|
ABcd|e^dfe|d^ced|=cBdc|B^AcB|A^GBA|^Gfed|cBA "_Da capo" |]

